X:13
T:david's lesson
R:double jig
Z:ceri
M:6/8
L:1/8
Q:3/8=100
K:G
d3 B3|dcB Bcd|e3 c3|edc cde|g3 d3|gde dce|gGA BdB|G3-G2 z:||
d2B d2B|c2A c2A|B2G B2G|e2c e2c|d2B d2B|c2A c2A|A3 GAB|
d3 B3|dcB Bcd|e3 c3|edc cde|g3 d3|gde dce|gGA BdB|G3-g z||
